X: 100518
T: John Brennan's Favorite
S: "Treoir" 
Z: B.Black
M: 4/4
L: 1/8
R: reel
K: G
GE | DG G2 DGBG | G2 Bd edcB | ABcd edcB |\
ABcd e3 E |
DGBG DGBG | G2 Bd edcB | ABcd efge | dcBA G2 :|
Bc | dg g2 bg g2 | dg g2 edcd | ea a2 a2 bg |\
a2 bg agef |
g3 e f3 d | efge dcBG | ABcd edge | dcBA G2 :|
